_includes/icons/color-notification.svg

<svg fill="#666" height="50" viewBox="0 0 48 48" width="50" xmlns="http://www.w3.org/2000/svg"><path d="m28 38c0 2.210938-1.789062 4-4 4-2.210937 0-4-1.789062-4-4 0-2.207031 1.789063-4 4-4 2.210938 0 4 1.792969 4 4z" fill="#db8509"/><path d="m26 11c0 1.105469-.894531 2-2 2s-2-.894531-2-2v-4c0-1.105469.894531-2 2-2s2 .894531 2 2z" fill="#db8509"/><path d="m27.886719 38.910156c.066406-.292968.113281-.597656.113281-.910156 0-.382812-.070312-.746094-.171875-1.097656-1.21875.0625-2.496094.097656-3.828125.097656s-2.609375-.035156-3.828125-.097656c-.101562.351562-.171875.714844-.171875 1.097656 0 .3125.046875.617188.113281.910156 1.472657.070313 2.8125.089844 3.886719.089844s2.414063-.019531 3.886719-.089844z" fill="#bc6f0a"/><g fill="#ffc107"><path d="m33 33v-16.199219c0-4.96875-4.027344-9-9-9s-9 4.03125-9 9v16.199219z"/><path d="m41 33c0 2.210938-7.058594 4-17 4s-17-1.789062-17-4c0-2.210937 7.058594-4 17-4s17 1.789063 17 4z"/><path d="m7 33c0-2 8-9 8-12s18-3 18 0 8 10 8 12-34 2-34 0z"/></g><path d="m9.273438 29.425781c-.488282.589844-.925782 1.144532-1.292969 1.648438 1.621094.65625 8.148437 3.0625 16.5625 3.0625 4.746094 0 10.089844-.78125 15.476562-3.066406-.363281-.496094-.796875-1.042969-1.28125-1.628907-13.039062 5.28125-26.039062 1.238282-29.464843-.015625z" fill="#ffe082"/></svg>

<svg xmlns="http://www.w3.org/2000/svg" viewBox="0 0 48 48" width="50" height="50" fill="#666"><path d="M 28 38 C 28 40.210938 26.210938 42 24 42 C 21.789063 42 20 40.210938 20 38 C 20 35.792969 21.789063 34 24 34 C 26.210938 34 28 35.792969 28 38 Z" fill="#db8509"/><path d="M 26 11 C 26 12.105469 25.105469 13 24 13 C 22.894531 13 22 12.105469 22 11 L 22 7 C 22 5.894531 22.894531 5 24 5 C 25.105469 5 26 5.894531 26 7 Z" fill="#db8509"/><path d="M 27.886719 38.910156 C 27.953125 38.617188 28 38.3125 28 38 C 28 37.617188 27.929688 37.253906 27.828125 36.902344 C 26.609375 36.964844 25.332031 37 24 37 C 22.667969 37 21.390625 36.964844 20.171875 36.902344 C 20.070313 37.253906 20 37.617188 20 38 C 20 38.3125 20.046875 38.617188 20.113281 38.910156 C 21.585938 38.980469 22.925781 39 24 39 C 25.074219 39 26.414063 38.980469 27.886719 38.910156 Z" fill="#bc6f0a"/><path d="M 33 33 L 33 16.800781 C 33 11.832031 28.972656 7.800781 24 7.800781 C 19.027344 7.800781 15 11.832031 15 16.800781 L 15 33 Z" fill="#ffc107"/><path d="M 41 33 C 41 35.210938 33.941406 37 24 37 C 14.058594 37 7 35.210938 7 33 C 7 30.789063 14.058594 29 24 29 C 33.941406 29 41 30.789063 41 33 Z" fill="#ffc107"/><path d="M 7 33 C 7 31 15 24 15 21 C 15 18 33 18 33 21 C 33 24 41 31 41 33 C 41 35 7 35 7 33 Z" fill="#ffc107"/><path d="M 9.273438 29.425781 C 8.785156 30.015625 8.347656 30.570313 7.980469 31.074219 C 9.601563 31.730469 16.128906 34.136719 24.542969 34.136719 C 29.289063 34.136719 34.632813 33.355469 40.019531 31.070313 C 39.65625 30.574219 39.222656 30.027344 38.738281 29.441406 C 25.699219 34.722656 12.699219 30.679688 9.273438 29.425781 Z" fill="#ffe082"/></svg>
